X: 20332
Q: "Andante"
M: C
L: 1/8
K: C
(c3d c2)d2 | (e3f e2)f2 |\
(agfe) (gfed) | e4 z2e2 |\
(d3c B2)d2 | g3d d2e2 |\
(edcB) (dcBA) |
"_cres."g(b/a/) (a/Tg/)(^f/e/) d2Tc2 |\
|: g2 |\
({a}g2=fe) f3f | ({g}f2ed) e3e |\
{e}d2c2 {g}f3e | (e2d2) z2G2 |
!mf!(c3d c2)d2 | (e3f e2)f2 |\
{a}g2(fe) {g}f2(ed) | c'2- c'b/a/ ({a}g^f/g/)  {b}ag/=f/ |\
(f/e/d/e/) (g/f/e/d/) (c2 B)>c | c4 z2 :|


